X:247
T:Pigeon on the Gate 1 (reel), The
B:CRE2.250i (ColÃÂÃÂÃÂÃÂºr ar an nGeata 1)
F:file ID: cre.2/247pig_g1
L:1/8
M:C
R:reel
Q:180
K:Am
eAA2 eg^fd|eAA2 edBd|eAA2 eg^fa|gedB GABd|
eAA2 eg^fg|eAA2 edBd|eAA2 eg^f2|gedB GABd||
eaa2 b2ag|eaa^f ged2|eaa2 b2ag|egdB GABd|
eaa2 b2ag|eaa^f g3a|b2bg abag|eaag ed (3Bcd||

%%%

